flaticon/army-badges/target-27.svg

<svg xmlns="http://www.w3.org/2000/svg" width="32" height="32" viewBox="0 0 24 24">
    <path d="M 12 0 C 5.398438 0 0 5.359375 0 12 C 0 18.640625 5.398438 24 12 24 C 18.601562 24 24 18.601562 24 12 C 24 5.398438 18.601562 0 12 0 Z M 12 23.199219 C 5.839844 23.199219 0.800781 18.160156 0.800781 12 C 0.800781 5.839844 5.839844 0.800781 12 0.800781 C 18.160156 0.800781 23.199219 5.839844 23.199219 12 C 23.199219 18.160156 18.160156 23.199219 12 23.199219 Z M 12 23.199219"/>
    <path d="M 12 1.601562 C 6.28125 1.601562 1.601562 6.28125 1.601562 12 C 1.601562 17.761719 6.28125 22.398438 12 22.398438 C 17.71875 22.398438 22.398438 17.761719 22.398438 12 C 22.398438 6.28125 17.71875 1.601562 12 1.601562 Z M 21.589844 11.601562 L 15.199219 11.601562 L 15.199219 10.800781 C 15.199219 10.558594 15.039062 10.398438 14.800781 10.398438 C 14.558594 10.398438 14.398438 10.558594 14.398438 10.800781 L 14.398438 11.601562 L 12.398438 11.601562 L 12.398438 9.601562 L 13.199219 9.601562 C 13.441406 9.601562 13.601562 9.441406 13.601562 9.199219 C 13.601562 8.960938 13.441406 8.800781 13.199219 8.800781 L 12.398438 8.800781 L 12.398438 2.410156 C 17.363281 2.613281 21.386719 6.636719 21.589844 11.601562 Z M 11.601562 2.410156 L 11.601562 8.800781 L 10.800781 8.800781 C 10.558594 8.800781 10.398438 8.960938 10.398438 9.199219 C 10.398438 9.441406 10.558594 9.601562 10.800781 9.601562 L 11.601562 9.601562 L 11.601562 11.601562 L 9.601562 11.601562 L 9.601562 10.800781 C 9.601562 10.558594 9.441406 10.398438 9.199219 10.398438 C 8.960938 10.398438 8.800781 10.558594 8.800781 10.800781 L 8.800781 11.601562 L 2.410156 11.601562 C 2.613281 6.636719 6.636719 2.613281 11.601562 2.410156 Z M 2.410156 12.398438 L 8.800781 12.398438 L 8.800781 13.199219 C 8.800781 13.441406 8.960938 13.601562 9.199219 13.601562 C 9.441406 13.601562 9.601562 13.441406 9.601562 13.199219 L 9.601562 12.398438 L 11.601562 12.398438 L 11.601562 14.398438 L 10.800781 14.398438 C 10.558594 14.398438 10.398438 14.558594 10.398438 14.800781 C 10.398438 15.039062 10.558594 15.199219 10.800781 15.199219 L 11.601562 15.199219 L 11.601562 21.589844 C 6.636719 21.386719 2.613281 17.363281 2.410156 12.398438 Z M 12.398438 21.589844 L 12.398438 15.199219 L 13.199219 15.199219 C 13.441406 15.199219 13.601562 15.039062 13.601562 14.800781 C 13.601562 14.558594 13.441406 14.398438 13.199219 14.398438 L 12.398438 14.398438 L 12.398438 12.398438 L 14.398438 12.398438 L 14.398438 13.199219 C 14.398438 13.441406 14.558594 13.601562 14.800781 13.601562 C 15.039062 13.601562 15.199219 13.441406 15.199219 13.199219 L 15.199219 12.398438 L 21.589844 12.398438 C 21.386719 17.363281 17.363281 21.386719 12.398438 21.589844 Z M 12.398438 21.589844"/>
</svg>

<svg xmlns="http://www.w3.org/2000/svg" width="32" height="32" viewBox="0 0 24 24">
    <path d="M12 0C5.398 0 0 5.36 0 12s5.398 12 12 12 12-5.398 12-12S18.602 0 12 0zm0 23.2C5.84 23.2.8 18.16.8 12 .8 5.84 5.84.8 12 .8 18.16.8 23.2 5.84 23.2 12c0 6.16-5.04 11.2-11.2 11.2zm0 0"/>
    <path d="M12 1.602C6.281 1.602 1.602 6.282 1.602 12c0 5.762 4.68 10.398 10.398 10.398 5.719 0 10.398-4.636 10.398-10.398 0-5.719-4.68-10.398-10.398-10.398zm9.59 10H15.2V10.8c0-.242-.16-.403-.4-.403-.241 0-.402.16-.402.403v.8h-2v-2h.801c.242 0 .403-.16.403-.402 0-.238-.16-.398-.403-.398h-.8V2.41c4.964.202 8.988 4.226 9.19 9.19zM11.602 2.41V8.8H10.8c-.242 0-.403.16-.403.4 0 .241.16.402.403.402h.8v2h-2V10.8c0-.242-.16-.403-.402-.403-.238 0-.398.16-.398.403v.8H2.41c.202-4.964 4.226-8.988 9.19-9.19zM2.41 12.398H8.8v.801c0 .242.16.403.4.403.241 0 .402-.16.402-.403v-.8h2v2H10.8c-.242 0-.403.16-.403.402 0 .238.16.398.403.398h.8v6.39c-4.964-.202-8.988-4.226-9.19-9.19zm9.988 9.192V15.2h.801c.242 0 .403-.16.403-.4 0-.241-.16-.402-.403-.402h-.8v-2h2v.801c0 .242.16.403.402.403.238 0 .398-.16.398-.403v-.8h6.39c-.202 4.964-4.226 8.988-9.19 9.19zm0 0"/>
</svg>
